icons/monitor-backB.svg

<svg width="24" height="24" viewBox="0 0 24 24" fill="none" xmlns="http://www.w3.org/2000/svg">
<path fill-rule="evenodd" clip-rule="evenodd" d="M11.4001 13.25C10.6338 13.25 10.0072 13.8059 9.94702 14.4679L9.94673 14.4711L9.74567 16.5821L9.34968 19.75H14.6366C14.6388 19.7457 14.6409 19.7408 14.6428 19.7356C14.6446 19.7307 14.646 19.7262 14.647 19.722L14.2567 16.5996L13.9598 14.5214C13.8153 13.7578 13.2066 13.25 12.5001 13.25H11.4001ZM8.45333 14.3304C8.59403 12.7933 9.96696 11.75 11.4001 11.75H12.5001C13.9897 11.75 15.1781 12.8366 15.438 14.2658L15.4405 14.2798L15.7444 16.407L16.1501 19.6533V19.7C16.1501 20.0798 16.0108 20.4487 15.7763 20.7301C15.5385 21.0155 15.1653 21.25 14.7001 21.25H9.3001C8.85956 21.25 8.46743 21.0379 8.20973 20.7568C7.95828 20.4825 7.76064 20.0546 7.86034 19.5714L8.25452 16.4179L8.45333 14.3304Z" fill="black"/>
<path d="M21 5.2V14.7C21 15.7 20.2 16.4 19.3 16.4H15L14.7 14.3C14.6 13.2 13.6 12.4 12.5 12.4H11.4C10.3 12.4 9.4 13.2 9.2 14.3L8.9 16.4H4.7C3.7 16.4 3 15.6 3 14.7V5.2C3 4.3 3.8 3.5 4.7 3.5H19.2C20.2 3.5 21 4.2 21 5.2Z" fill="black"/>
<path fill-rule="evenodd" clip-rule="evenodd" d="M4.7 4.25C4.21421 4.25 3.75 4.71421 3.75 5.2V14.7C3.75 15.2149 4.14277 15.65 4.7 15.65H8.24953L8.45955 14.1798L8.4621 14.1658C8.72197 12.7366 9.91044 11.65 11.4 11.65H12.5C13.9273 11.65 15.2948 12.6847 15.445 14.2115L15.6505 15.65H19.3C19.8149 15.65 20.25 15.2572 20.25 14.7V5.2C20.25 4.66961 19.8434 4.25 19.2 4.25H4.7ZM2.25 5.2C2.25 3.88579 3.38579 2.75 4.7 2.75H19.2C20.5566 2.75 21.75 3.73039 21.75 5.2V14.7C21.75 16.1428 20.5851 17.15 19.3 17.15H14.3495L13.9548 14.387L13.9531 14.3679C13.8929 13.7059 13.2663 13.15 12.5 13.15H11.4C10.6935 13.15 10.0848 13.6578 9.94027 14.4214L9.55047 17.15H4.7C3.25723 17.15 2.25 15.9851 2.25 14.7V5.2Z" fill="black"/>
</svg>

<svg xmlns="http://www.w3.org/2000/svg" fill="none" viewBox="0 0 24 24">
  <path fill="#000" fill-rule="evenodd" d="M11.4 13.25c-.766 0-1.393.556-1.453 1.218v.003l-.201 2.111-.396 3.168h5.287a.13.13 0 0 0 .01-.028l-.39-3.122-.297-2.079c-.145-.763-.753-1.271-1.46-1.271h-1.1Zm-2.947 1.08c.141-1.537 1.514-2.58 2.947-2.58h1.1c1.49 0 2.678 1.087 2.938 2.516l.002.014.304 2.127.406 3.246v.047c0 .38-.14.749-.374 1.03a1.4 1.4 0 0 1-1.076.52H9.3a1.5 1.5 0 0 1-1.09-.493c-.252-.274-.45-.702-.35-1.186l.395-3.153.198-2.088Z" clip-rule="evenodd"/>
  <path fill="#000" d="M21 5.2v9.5c0 1-.8 1.7-1.7 1.7H15l-.3-2.1c-.1-1.1-1.1-1.9-2.2-1.9h-1.1c-1.1 0-2 .8-2.2 1.9l-.3 2.1H4.7c-1 0-1.7-.8-1.7-1.7V5.2c0-.9.8-1.7 1.7-1.7h14.5c1 0 1.8.7 1.8 1.7Z"/>
  <path fill="#000" fill-rule="evenodd" d="M4.7 4.25c-.486 0-.95.464-.95.95v9.5c0 .515.393.95.95.95h3.55l.21-1.47.002-.014c.26-1.43 1.448-2.516 2.938-2.516h1.1c1.427 0 2.795 1.035 2.945 2.561l.205 1.439h3.65c.515 0 .95-.393.95-.95V5.2c0-.53-.407-.95-1.05-.95H4.7Zm-2.45.95c0-1.314 1.136-2.45 2.45-2.45h14.5c1.357 0 2.55.98 2.55 2.45v9.5c0 1.443-1.165 2.45-2.45 2.45h-4.95l-.395-2.763-.002-.02c-.06-.661-.687-1.217-1.453-1.217h-1.1c-.707 0-1.315.508-1.46 1.271l-.39 2.729H4.7c-1.443 0-2.45-1.165-2.45-2.45V5.2Z" clip-rule="evenodd"/>
</svg>
